!!!!SEGMENT: pl-cz--iii-560--001-008_raszek-waclaw--missa-in-d-sanctus.krn
!!!cenid: 17xx:1054
!!!COM: Raszek, Wacław
!!!COM-rismID: pe30020314
!!!CDT: <1848->1848
!!!CNT:
!!!OPR: Missa in D
!!!OTL: Sanctus
!!!OMV: 008
!!!PDT:
!!!AGN: Sacred; Mass
!!!YEC: Copyright 2022 Narodowy Instytut Fryderyka Chopina (https://polishscores.org)
!!!YEM: License CC-BY-4.0 (https://creativecommons.org/licenses/by/4.0)
!!!SMS-siglum: PL-CZ
!!!SMS-shelfmark: III-560
!!!SMS-shelfwork: 001-008 M
!!!SMS-variant:
!!!SMS-altvar:
!!!NIFC-rismSourceID: 300001046
!!!NIFC-rismChildID: 300001046
!!!NIFC-islandoraID: pl-cz:39086
!!!URL-pdf-islandora: https://repozytorium.nifc.pl/islandora/object/pl-cz%3A39086/datastream/PDF/view
!!!URL-scan: https://polish.musicsources.pl/pl/lokalizacje/galeria/rekopisy/6950/1 @EN{Scan on Polish Music Sources Website} @PL{Skany w portalu Dziedzictwo Muzyki Polskiej w otwartym dostępie}
!!!IIIF:
!!!ONB-nifc: UWAGA: części Mszy: Kyrie, Gloria, Domine Deus, Cum Sancto spiritu, Credo, Et incarnatus, Et resurrexit, Sanctus, Pleni, Benedictus, Agnus Dei, Dona nobis
!!!AIN: 1 alto 1 bass 2 cor 1 flt 2 oboe 1 organ 1 soprn 1 tenor 1 viola 2 violn
!!!OMD:
!!!OMD-mod: Adagio
!!!key: D
**kern	**dynam	**kern	**dynam	**kern	**dynam	**kern	**dynam	**kern	**text	**dynam	**kern	**text	**dynam	**kern	**text	**dynam	**kern	**text	**dynam	**kern	**dynam	**kern	**dynam	**kern	**dynam	**kern	**dynam	**kern
*	*	*group4	*	*group4	*	*group4	*	*group3	*	*	*group3	*	*	*group3	*	*	*group3	*	*	*group2	*	*group2	*	*group1	*	*group1	*	*group1
*part13	*	*part12	*	*part11	*	*part10	*	*part9	*	*	*part8	*	*	*part7	*	*	*part6	*	*	*part5	*	*part4	*	*part3	*	*part2	*	*part1
*staff13	*	*staff12	*	*staff11	*	*staff10	*	*staff9	*	*	*staff8	*	*	*staff7	*	*	*staff6	*	*	*staff5	*	*staff4	*	*staff3	*	*staff2	*	*staff1
*I"Organo.	*	*I"Alto Viola Obligat	*	*I"Violino Secundo	*	*I"Violino Primo.	*	*I"Baſſo.	*	*	*I"Tenore.	*	*	*I"Alto.	*	*	*I"Canto.	*	*	*I"Corno 2do in D#	*	*I"Corno 1mo in D#	*	*I"Oboe Secondo	*	*I"Oboe Primo	*	*I"Flauto Traverso
*mI"Organo	*	*mI"Viola	*	*mI"Violino II	*	*mI"Violino I	*	*mI"Basso	*	*	*mI"Tenore	*	*	*mI"Alto	*	*	*mI"Soprano	*	*	*mI"Corno II in D	*	*mI"Corno I in D	*	*mI"Oboe II	*	*mI"Oboe I	*	*mI"Flauto
*I'org	*	*I'vla	*	*I'vl 2	*	*I'vl 1	*	*I'B	*	*	*I'T	*	*	*I'A	*	*	*I'S	*	*	*I'cor 2 in D#	*	*I'cor 1 in D#	*	*I'ob 2	*	*I'ob 1	*	*I'fl
*	*	*	*	*	*	*	*	*	*	*	*	*	*	*	*	*	*	*	*	*mI'cor 2 in D	*	*mI'cor 1 in D	*	*	*	*	*	*
*Iorgan	*	*Iviola	*	*Ivioln	*	*Ivioln	*	*Ibass	*	*	*Itenor	*	*	*Ialto	*	*	*Isoprn	*	*	*Icor	*	*Icor	*	*Ioboe	*	*Ioboe	*	*Iflt
*ICklav	*	*ICstr	*	*ICstr	*	*ICstr	*	*ICvox	*	*	*ICvox	*	*	*ICvox	*	*	*ICvox	*	*	*ICbras	*	*ICbras	*	*ICww	*	*ICww	*	*ICww
*IGcont	*	*	*	*	*	*	*	*	*	*	*	*	*	*	*	*	*	*	*	*	*	*	*	*	*	*	*	*
*	*	*	*	*	*	*	*	*	*	*	*	*	*	*	*	*	*	*	*	*	*	*	*	*	*	*	*	*tacet
*clefF4	*	*clefC3	*	*clefG2	*	*clefG2	*	*clefF4	*	*	*clefC4	*	*	*clefC3	*	*	*clefC1	*	*	*clefG2	*	*clefG2	*	*clefG2	*	*clefG2	*	*clefG2
*	*	*	*	*	*	*	*	*	*	*	*mclefGv2	*	*	*mclefG2	*	*	*mclefG2	*	*	*	*	*	*	*	*	*	*	*
*	*	*	*	*	*	*	*	*	*	*	*	*	*	*	*	*	*	*	*	*ITrd-1c-2	*	*ITrd-1c-2	*	*	*	*	*	*
*k[f#c#]	*	*k[f#c#]	*	*k[f#c#]	*	*k[f#c#]	*	*k[f#c#]	*	*	*k[f#c#]	*	*	*k[f#c#]	*	*	*k[f#c#]	*	*	*k[f#c#]	*	*k[f#c#]	*	*k[f#c#]	*	*k[f#c#]	*	*
*D:	*	*D:	*	*D:	*	*D:	*	*D:	*	*	*D:	*	*	*D:	*	*	*D:	*	*	*	*	*	*	*D:	*	*D:	*	*
*M4/4	*	*M4/4	*	*M4/4	*	*M4/4	*	*M4/4	*	*	*M4/4	*	*	*M4/4	*	*	*M4/4	*	*	*M4/4	*	*M4/4	*	*M4/4	*	*M4/4	*	*
*met(c)	*	*met(C.)	*	*met(C.)	*	*met(c)	*	*met(c)	*	*	*met(c)	*	*	*met(c)	*	*	*met(c)	*	*	*met(C.)	*	*met(C.)	*	*met(C.)	*	*met(C.)	*	*
*mmet(c)	*	*mmet(c)	*	*mmet(c)	*	*mmet(c)	*	*mmet(c)	*	*	*mmet(c)	*	*	*mmet(c)	*	*	*mmet(c)	*	*	*mmet(c)	*	*mmet(c)	*	*mmet(c)	*	*mmet(c)	*	*
=1	=1	=1	=1	=1	=1	=1	=1	=1	=1	=1	=1	=1	=1	=1	=1	=1	=1	=1	=1	=1	=1	=1	=1	=1	=1	=1	=1	=1
!LO:MO:mod=*null:null	!	!LO:MO:mod=*null:null	!	!	!	!LO:MO:mod=*null:null	!	!	!	!	!	!	!	!	!	!	!	!	!	!	!	!	!	!	!	!	!	!
*2\right	*	*2\right	*	*	*	*2\right	*	*	*	*	*	*	*	*	*	*	*	*	*	*	*	*	*	*	*	*	*	*
*tremolo	*	*tremolo	*	*	*	*	*	*	*	*	*	*	*	*	*	*	*	*	*	*	*	*	*	*	*	*	*	*
!	!	!	!	!	!	!	!	!	!	!	!	!	!	!	!	!	!LO:TX:t=P:problem=kolejność znaków f#cc#:mod=	!	!	!	!	!	!LO:DY:a:t=p.	!	!	!	!	!
!LO:TX:a:t=....:mod=	!	!	!	!	!LO:DY:t=p&colon;:mod=%s	!	!	!	!	!	!	!	!	!LO:TX:a:i:t=Adag.:mod=	!	!	!LO:TX:a:i:t=Adag.:mod=	!	!	!	!	!LO:TX:a:i:t=adaio.:mod=	!	!LO:TX:a:i:t=adagio:mod=	!	!	!LO:TX:a:i:t=Adagio:mod=	!
!LO:TX:a:i:t=Adagio Solo.:mod=	!	!LO:TX:a:i:t=adagio:mod=	!LO:DY:a:t=p&colon;:mod=%s	!LO:TX:a:i:t=Adagio:mod=	!	!LO:TX:a:i:t=Adagio:mod=	!	!LO:TX:a:i:t=Adag&colon;:mod=	!	!	!LO:TX:a:t=5:mod=	!	!	!LO:TX:a:t=5:mod=	!	!	!LO:TX:a:t=5:mod=	!	!	!LO:TX:a:t=3.:mod=	!	!LO:TX:a:t=3:mod=	!	!LO:TX:a:t=5:mod=	!	!LO:TX:a:t=5.:mod=	!	!
8D|\L	.	8d\L	p	16A/LL	p	2aa\	p	00r	.	.	00r	.	.	00r	.	.	00r	.	.	0r	.	0r	.	00r	.	00r	.	1ryy
.	.	.	.	16f#/	.	.	.	.	.	.	.	.	.	.	.	.	.	.	.	.	.	.	.	.	.	.	.	.
8D|\	.	8d\	.	16d/	.	.	.	.	.	.	.	.	.	.	.	.	.	.	.	.	.	.	.	.	.	.	.	.
.	.	.	.	16f#/JJ	.	.	.	.	.	.	.	.	.	.	.	.	.	.	.	.	.	.	.	.	.	.	.	.
8D|\	.	8d\	.	16A/LL	.	.	.	.	.	.	.	.	.	.	.	.	.	.	.	.	.	.	.	.	.	.	.	.
.	.	.	.	16f#/	.	.	.	.	.	.	.	.	.	.	.	.	.	.	.	.	.	.	.	.	.	.	.	.
8D|\J	.	8d\J	.	16d/	.	.	.	.	.	.	.	.	.	.	.	.	.	.	.	.	.	.	.	.	.	.	.	.
.	.	.	.	16f#/JJ	.	.	.	.	.	.	.	.	.	.	.	.	.	.	.	.	.	.	.	.	.	.	.	.
*Xtremolo	*	*	*	*	*	*	*	*	*	*	*	*	*	*	*	*	*	*	*	*	*	*	*	*	*	*	*	*
8D|\	.	8d\	.	8f#/	.	16aa\LL	.	.	.	.	.	.	.	.	.	.	.	.	.	.	.	.	.	.	.	.	.	.
.	.	.	.	.	.	16ddd\	.	.	.	.	.	.	.	.	.	.	.	.	.	.	.	.	.	.	.	.	.	.
*	*	*Xtremolo	*	*	*	*	*	*	*	*	*	*	*	*	*	*	*	*	*	*	*	*	*	*	*	*	*	*
8r	.	8r	.	8r	.	16ff#\	.	.	.	.	.	.	.	.	.	.	.	.	.	.	.	.	.	.	.	.	.	.
.	.	.	.	.	.	16aa\JJ	.	.	.	.	.	.	.	.	.	.	.	.	.	.	.	.	.	.	.	.	.	.
4r	.	4r	.	4r	.	16dd\LL	.	.	.	.	.	.	.	.	.	.	.	.	.	.	.	.	.	.	.	.	.	.
.	.	.	.	.	.	16ff#\	.	.	.	.	.	.	.	.	.	.	.	.	.	.	.	.	.	.	.	.	.	.
.	.	.	.	.	.	16aa\	.	.	.	.	.	.	.	.	.	.	.	.	.	.	.	.	.	.	.	.	.	.
.	.	.	.	.	.	16ddd\JJ	.	.	.	.	.	.	.	.	.	.	.	.	.	.	.	.	.	.	.	.	.	.
=2	=2	=2	=2	=2	=2	=2	=2	=2	=2	=2	=2	=2	=2	=2	=2	=2	=2	=2	=2	=2	=2	=2	=2	=2	=2	=2	=2	=2
!	!	!LO:MO:mod=*tremolo	!	!	!	!	!	!	!	!	!	!	!	!	!	!	!	!	!	!	!	!	!	!	!	!	!	!
*tremolo	*	*null	*	*	*	*	*	*	*	*	*	*	*	*	*	*	*	*	*	*	*	*	*	*	*	*	*	*
.	.	.	.	.	.	16qqaa/LL	.	.	.	.	.	.	.	.	.	.	.	.	.	.	.	.	.	.	.	.	.	.
.	.	.	.	.	.	16qqccc#/JJ	.	.	.	.	.	.	.	.	.	.	.	.	.	.	.	.	.	.	.	.	.	.
8D\L	.	8d\L	.	16B/LL	.	2bb\	.	.	.	.	.	.	.	.	.	.	.	.	.	.	.	.	.	.	.	.	.	1ryy
.	.	.	.	16g/	.	.	.	.	.	.	.	.	.	.	.	.	.	.	.	.	.	.	.	.	.	.	.	.
8D\	.	8d\	.	16d/	.	.	.	.	.	.	.	.	.	.	.	.	.	.	.	.	.	.	.	.	.	.	.	.
.	.	.	.	16g/JJ	.	.	.	.	.	.	.	.	.	.	.	.	.	.	.	.	.	.	.	.	.	.	.	.
8D\	.	8d\	.	16B/LL	.	.	.	.	.	.	.	.	.	.	.	.	.	.	.	.	.	.	.	.	.	.	.	.
.	.	.	.	16g/	.	.	.	.	.	.	.	.	.	.	.	.	.	.	.	.	.	.	.	.	.	.	.	.
8D\J	.	8d\J	.	16d/	.	.	.	.	.	.	.	.	.	.	.	.	.	.	.	.	.	.	.	.	.	.	.	.
.	.	.	.	16g/JJ	.	.	.	.	.	.	.	.	.	.	.	.	.	.	.	.	.	.	.	.	.	.	.	.
!	!	!LO:MO:mod=*Xtremolo	!	!	!	!	!	!	!	!	!	!	!	!	!	!	!	!	!	!	!	!	!	!	!	!	!	!
*Xtremolo	*	*null	*	*	*	*	*	*	*	*	*	*	*	*	*	*	*	*	*	*	*	*	*	*	*	*	*	*
8D\	.	8d\	.	8g/	.	16bb\LL	.	.	.	.	.	.	.	.	.	.	.	.	.	.	.	.	.	.	.	.	.	.
.	.	.	.	.	.	16ddd\	.	.	.	.	.	.	.	.	.	.	.	.	.	.	.	.	.	.	.	.	.	.
8r	.	8r	.	8r	.	16gg\	.	.	.	.	.	.	.	.	.	.	.	.	.	.	.	.	.	.	.	.	.	.
.	.	.	.	.	.	16bb\JJ	.	.	.	.	.	.	.	.	.	.	.	.	.	.	.	.	.	.	.	.	.	.
4r	.	4r	.	4r	.	16dd\LL	.	.	.	.	.	.	.	.	.	.	.	.	.	.	.	.	.	.	.	.	.	.
.	.	.	.	.	.	16gg\	.	.	.	.	.	.	.	.	.	.	.	.	.	.	.	.	.	.	.	.	.	.
.	.	.	.	.	.	16bb\	.	.	.	.	.	.	.	.	.	.	.	.	.	.	.	.	.	.	.	.	.	.
.	.	.	.	.	.	16ddd\JJ	.	.	.	.	.	.	.	.	.	.	.	.	.	.	.	.	.	.	.	.	.	.
=3	=3	=3	=3	=3	=3	=3	=3	=3	=3	=3	=3	=3	=3	=3	=3	=3	=3	=3	=3	=3	=3	=3	=3	=3	=3	=3	=3	=3
.	.	.	.	.	.	16qqgg#X/LL	.	.	.	.	.	.	.	.	.	.	.	.	.	.	.	.	.	.	.	.	.	.
.	.	.	.	.	.	16qqbb/JJ	.	.	.	.	.	.	.	.	.	.	.	.	.	.	.	.	.	.	.	.	.	.
*tremolo	*	*tremolo	*	*	*	*	*	*	*	*	*	*	*	*	*	*	*	*	*	*	*	*	*	*	*	*	*	*
8D\L	.	8d\L	.	16A/LL	.	2aa\	.	.	.	.	.	.	.	.	.	.	.	.	.	1r	.	1r	.	.	.	.	.	1ryy
.	.	.	.	16f#/	.	.	.	.	.	.	.	.	.	.	.	.	.	.	.	.	.	.	.	.	.	.	.	.
8D\	.	8d\	.	16d/	.	.	.	.	.	.	.	.	.	.	.	.	.	.	.	.	.	.	.	.	.	.	.	.
.	.	.	.	16f#/JJ	.	.	.	.	.	.	.	.	.	.	.	.	.	.	.	.	.	.	.	.	.	.	.	.
*	*	*	*	*rep	*	*	*	*	*	*	*	*	*	*	*	*	*	*	*	*	*	*	*	*	*	*	*	*
8D\	.	8d\	.	16A/LL	.	.	.	.	.	.	.	.	.	.	.	.	.	.	.	.	.	.	.	.	.	.	.	.
.	.	.	.	16f#/	.	.	.	.	.	.	.	.	.	.	.	.	.	.	.	.	.	.	.	.	.	.	.	.
8D\J	.	8d\J	.	16d/	.	.	.	.	.	.	.	.	.	.	.	.	.	.	.	.	.	.	.	.	.	.	.	.
.	.	.	.	16f#/JJ	.	.	.	.	.	.	.	.	.	.	.	.	.	.	.	.	.	.	.	.	.	.	.	.
*Xtremolo	*	*Xtremolo	*	*Xrep	*	*Xtuplet	*	*	*	*	*	*	*	*	*	*	*	*	*	*	*	*	*	*	*	*	*	*
!LO:TX:a:t=c:mod=	!	!	!	!LO:LB:g=original	!	!	!	!	!	!	!	!	!	!	!	!	!	!	!	!	!	!	!	!	!	!	!	!
8C#\	.	8A/	.	8f#/	.	24gg\LL	.	.	.	.	.	.	.	.	.	.	.	.	.	.	.	.	.	.	.	.	.	.
.	.	.	.	.	.	24ff#\	.	.	.	.	.	.	.	.	.	.	.	.	.	.	.	.	.	.	.	.	.	.
.	.	.	.	.	.	24ee\JJ	.	.	.	.	.	.	.	.	.	.	.	.	.	.	.	.	.	.	.	.	.	.
8r	.	8r	.	8r	.	24dd\LL	.	.	.	.	.	.	.	.	.	.	.	.	.	.	.	.	.	.	.	.	.	.
.	.	.	.	.	.	24cc#\	.	.	.	.	.	.	.	.	.	.	.	.	.	.	.	.	.	.	.	.	.	.
.	.	.	.	.	.	24b\JJ	.	.	.	.	.	.	.	.	.	.	.	.	.	.	.	.	.	.	.	.	.	.
!	!	!	!	!	!	!LO:LB:g=original	!	!	!	!	!	!	!	!	!	!	!	!	!	!	!	!	!	!	!	!	!	!
4r	.	4r	.	4r	.	16a/LL	.	.	.	.	.	.	.	.	.	.	.	.	.	.	.	.	.	.	.	.	.	.
.	.	.	.	.	.	16a/	.	.	.	.	.	.	.	.	.	.	.	.	.	.	.	.	.	.	.	.	.	.
.	.	.	.	.	.	16a/	.	.	.	.	.	.	.	.	.	.	.	.	.	.	.	.	.	.	.	.	.	.
.	.	.	.	.	.	16a/JJ	.	.	.	.	.	.	.	.	.	.	.	.	.	.	.	.	.	.	.	.	.	.
!	!	!LO:LB:g=original	!	!	!	!	!	!	!	!	!	!	!	!	!	!	!	!	!	!	!	!	!	!	!	!	!	!
=4	=4	=4	=4	=4	=4	=4	=4	=4	=4	=4	=4	=4	=4	=4	=4	=4	=4	=4	=4	=4	=4	=4	=4	=4	=4	=4	=4	=4
!	!	!	!	!	!	!	!	!	!	!	!	!	!	!	!	!	!	!	!	!	!LO:MO:mod=!LO&colon;DY&colon;ed=brack	!	!	!	!	!	!	!
!	!	!	!	!LO:TUP:b:problem=klamra łukowa	!	!	!	!	!	!	!	!	!	!	!	!	!	!	!	!	!LO:DY:t= :mod=%s	!	!LO:DY:a:t=p&colon;:mod=%s	!	!	!	!	!
8C#\	.	8A\L	.	24A/LL	.	4aa\	.	.	.	.	.	.	.	.	.	.	.	.	.	4a/	p	4ee\	p	.	.	.	.	1ryy
.	.	.	.	24c#/	.	.	.	.	.	.	.	.	.	.	.	.	.	.	.	.	.	.	.	.	.	.	.	.
!	!	!	!	!LO:SIC:s=24e	!	!	!	!	!	!	!	!	!	!	!	!	!	!	!	!	!	!	!	!	!	!	!	!
.	.	.	.	24e/J	.	.	.	.	.	.	.	.	.	.	.	.	.	.	.	.	.	.	.	.	.	.	.	.
!	!	!	!	!LO:SIC:s=24g	!	!	!	!	!	!	!	!	!	!	!	!	!	!	!	!	!	!	!	!	!	!	!	!
!	!	!LO:TUP:a:problem=klamra łukowa, łuczek zamiast numeru	!	!	!	!	!	!	!	!	!	!	!	!	!	!	!	!	!	!	!	!	!	!	!	!	!	!
8r	.	24e\L	.	24g/L	.	.	.	.	.	.	.	.	.	.	.	.	.	.	.	.	.	.	.	.	.	.	.	.
.	.	24d\	.	24f#/	.	.	.	.	.	.	.	.	.	.	.	.	.	.	.	.	.	.	.	.	.	.	.	.
.	.	24c#\JJ	.	24e/JJ	.	.	.	.	.	.	.	.	.	.	.	.	.	.	.	.	.	.	.	.	.	.	.	.
8D\	.	8d\	.	8f#/	.	(16aa\LL	.	.	.	.	.	.	.	.	.	.	.	.	.	8dd\	.	8ff#\	.	.	.	.	.	.
.	.	.	.	.	.	16ddd\)	.	.	.	.	.	.	.	.	.	.	.	.	.	.	.	.	.	.	.	.	.	.
8r	.	8r	.	8r	.	16aa|\	.	.	.	.	.	.	.	.	.	.	.	.	.	8r	.	8r	.	.	.	.	.	.
.	.	.	.	.	.	16aa|\JJ	.	.	.	.	.	.	.	.	.	.	.	.	.	.	.	.	.	.	.	.	.	.
!	!	!	!	!LO:TUP:b:klamra łukowa	!	!	!	!	!	!	!	!	!	!	!	!	!	!	!	!	!	!	!	!	!	!	!	!
8C#\	.	8A\L	.	24A/LL	.	4aa\	.	.	.	.	.	.	.	.	.	.	.	.	.	4a/	.	4ee\	.	.	.	.	.	.
.	.	.	.	24c#/	.	.	.	.	.	.	.	.	.	.	.	.	.	.	.	.	.	.	.	.	.	.	.	.
.	.	.	.	24e/	.	.	.	.	.	.	.	.	.	.	.	.	.	.	.	.	.	.	.	.	.	.	.	.
!	!	!LO:TUP:a:problem=klamra łukowa, łuczek zamiast numeru	!	!	!	!	!	!	!	!	!	!	!	!	!	!	!	!	!	!	!	!	!	!	!	!	!	!
8r	.	24e\L	.	24g/	.	.	.	.	.	.	.	.	.	.	.	.	.	.	.	.	.	.	.	.	.	.	.	.
.	.	24d\	.	24f#/	.	.	.	.	.	.	.	.	.	.	.	.	.	.	.	.	.	.	.	.	.	.	.	.
.	.	24c#\JJ	.	24e/JJ	.	.	.	.	.	.	.	.	.	.	.	.	.	.	.	.	.	.	.	.	.	.	.	.
8D\	.	8d\	.	8f#/	.	(16aa\LL	.	.	.	.	.	.	.	.	.	.	.	.	.	8dd\	.	8ff#\	.	.	.	.	.	.
.	.	.	.	.	.	16ddd\)	.	.	.	.	.	.	.	.	.	.	.	.	.	.	.	.	.	.	.	.	.	.
8r	.	8r	.	8r	.	16aa|\	.	.	.	.	.	.	.	.	.	.	.	.	.	8r	.	8r	.	.	.	.	.	.
.	.	.	.	.	.	16aa|\JJ	.	.	.	.	.	.	.	.	.	.	.	.	.	.	.	.	.	.	.	.	.	.
=5	=5	=5	=5	=5	=5	=5	=5	=5	=5	=5	=5	=5	=5	=5	=5	=5	=5	=5	=5	=5	=5	=5	=5	=5	=5	=5	=5	=5
8r	.	8r	.	8r	.	24bb\LL	.	1r	.	.	1r	.	.	1r	.	.	1r	.	.	8r	.	8r	.	1r	.	1r	.	1ryy
.	.	.	.	.	.	24gg\	.	.	.	.	.	.	.	.	.	.	.	.	.	.	.	.	.	.	.	.	.	.
.	.	.	.	.	.	24ff#\JJ	.	.	.	.	.	.	.	.	.	.	.	.	.	.	.	.	.	.	.	.	.	.
8GG/	.	8G/	.	8B/	.	24ee\LL	.	.	.	.	.	.	.	.	.	.	.	.	.	8ee\	.	8ee\	.	.	.	.	.	.
.	.	.	.	.	.	24gg\	.	.	.	.	.	.	.	.	.	.	.	.	.	.	.	.	.	.	.	.	.	.
.	.	.	.	.	.	24aa\JJ	.	.	.	.	.	.	.	.	.	.	.	.	.	.	.	.	.	.	.	.	.	.
8r	.	8r	.	8r	.	24bb\LL	.	.	.	.	.	.	.	.	.	.	.	.	.	8r	.	8r	.	.	.	.	.	.
.	.	.	.	.	.	24gg\	.	.	.	.	.	.	.	.	.	.	.	.	.	.	.	.	.	.	.	.	.	.
.	.	.	.	.	.	24ff#\JJ	.	.	.	.	.	.	.	.	.	.	.	.	.	.	.	.	.	.	.	.	.	.
8GG/	.	8G/	.	8B/	.	24ee\LL	.	.	.	.	.	.	.	.	.	.	.	.	.	8ee\	.	8ee\	.	.	.	.	.	.
.	.	.	.	.	.	24gg\	.	.	.	.	.	.	.	.	.	.	.	.	.	.	.	.	.	.	.	.	.	.
.	.	.	.	.	.	24aa\JJ	.	.	.	.	.	.	.	.	.	.	.	.	.	.	.	.	.	.	.	.	.	.
!	!	!	!	!	!	!	!	!	!	!	!	!	!	!	!	!	!	!	!	!LO:N:vis=8	!	!	!	!	!	!	!	!
!	!	!	!	!	!	!	!	!	!	!	!	!	!	!	!	!	!	!	!	!LO:MO:mod=8r	!	!	!	!	!	!	!	!
8r	.	8r	.	8r	.	24bb\LL	.	.	.	.	.	.	.	.	.	.	.	.	.	16r	.	8r	.	.	.	.	.	.
.	.	.	.	.	.	24gg\	.	.	.	.	.	.	.	.	.	.	.	.	.	.	.	.	.	.	.	.	.	.
!	!	!	!	!	!	!	!	!	!	!	!	!	!	!	!	!	!	!	!	!LO:N:vis=8	!	!	!	!	!	!	!	!
!	!	!	!	!	!	!	!	!	!	!	!	!	!	!	!	!	!	!	!	!LO:MO:mod=.	!	!	!	!	!	!	!	!
.	.	.	.	.	.	.	.	.	.	.	.	.	.	.	.	.	.	.	.	16r	.	.	.	.	.	.	.	.
.	.	.	.	.	.	24ee\JJ	.	.	.	.	.	.	.	.	.	.	.	.	.	.	.	.	.	.	.	.	.	.
!LO:TX:t=P:problem=mixed beam:mod=	!	!	!	!LO:TX:t=P:problem=mixed beam:mod=	!	!	!	!	!	!	!	!	!	!	!	!	!	!	!	!	!	!	!	!	!	!	!	!
8G\L	.	8A/L	.	8b\L	.	24b\LL	.	.	.	.	.	.	.	.	.	.	.	.	.	8ee\L	.	8ee\L	.	.	.	.	.	.
.	.	.	.	.	.	24gg\	.	.	.	.	.	.	.	.	.	.	.	.	.	.	.	.	.	.	.	.	.	.
.	.	.	.	.	.	24ee\JJ	.	.	.	.	.	.	.	.	.	.	.	.	.	.	.	.	.	.	.	.	.	.
!	!	!	!	!	!	!LO:SIC:s=8ddL	!	!	!	!	!	!	!	!	!	!	!	!	!	!	!	!	!	!	!	!	!	!
8A\	.	8A/	.	8f#/	.	(8dd\L	.	.	.	.	.	.	.	.	.	.	.	.	.	8dd\	.	8ff#\	.	.	.	.	.	.
!	!	!	!	!	!	!LO:SIC:s=8cc#J	!	!	!	!	!	!	!	!	!	!	!	!	!	!	!	!	!	!	!	!	!	!
8AA/J	.	8A/J	.	8e/J	.	8cc#\J)	.	.	.	.	.	.	.	.	.	.	.	.	.	8a\J	.	8ee\J	.	.	.	.	.	.
!LO:LB:g=original	!	!	!	!	!	!LO:LB:g=original	!	!	!	!	!	!	!	!	!	!	!	!	!	!LO:LB:g=original	!	!	!	!	!	!	!	!
=6	=6	=6	=6	=6	=6	=6	=6	=6	=6	=6	=6	=6	=6	=6	=6	=6	=6	=6	=6	=6	=6	=6	=6	=6	=6	=6	=6	=6
*tremolo	*	*tremolo	*	*	*	*	*	*	*	*	*	*	*	*	*	*	*	*	*	*	*	*	*	*	*	*	*	*
!	!LO:MO:mod=!null:null	!	!	!	!LO:MO:mod=!null:null	!	!LO:MO:mod=!null:null	!	!	!LO:MO:mod=!LO&colon;DY&colon;ed=brack	!	!	!LO:MO:mod=!LO&colon;DY&colon;ed=brack	!	!	!	!	!	!	!	!	!	!	!	!	!LO:MO:mod=!null:null	!	!
!	!LO:HP:t=Cres	!LO:TX:t=P:problem=niezidentyfikowany symbol nad nutą:mod=	!LO:MO:mod=<:null	!	!LO:HP:b:t=Creſ	!	!LO:HP:b:t=crescendo	!	!	!LO:DY:t= :mod=%s	!	!	!LO:DY:t= :mod=%s	!	!	!LO:DY:a:t=p&colon;:mod=%s	!	!	!LO:DY:a:t=p&colon;:mod=%s	!	!	!	!	!	!LO:DY:a	!LO:N:vis=1.	!LO:DY:t=p.:mod=%s	!
8D\L	<	8A/L	null	16f#/KL	<	16dd\KL	<	4D\	San-	p	4A\	San-	p	4f#\	San-	p	4dd\	San-	p	1f#	.	1dd	.	1f#	p	1dd	p	1ryy
.	.	.	.	8f#/	.	8dd\	.	.	.	.	.	.	.	.	.	.	.	.	.	.	.	.	.	.	.	.	.	.
8D\	.	8A/	.	.	.	.	.	.	.	.	.	.	.	.	.	.	.	.	.	.	.	.	.	.	.	.	.	.
.	.	.	.	8f#/	.	8dd\	.	.	.	.	.	.	.	.	.	.	.	.	.	.	.	.	.	.	.	.	.	.
8D\	.	8A/	.	.	.	.	.	4D\	-ctus	.	4A\	-ctus	.	4f#\	-ctus	.	4dd\	-ctus	.	.	.	.	.	.	.	.	.	.
.	.	.	.	8f#/	.	8dd\	.	.	.	.	.	.	.	.	.	.	.	.	.	.	.	.	.	.	.	.	.	.
8D\J	.	8A/J	.	.	.	.	.	.	.	.	.	.	.	.	.	.	.	.	.	.	.	.	.	.	.	.	.	.
.	.	.	.	16f#/Jk	.	16dd\Jk	.	.	.	.	.	.	.	.	.	.	.	.	.	.	.	.	.	.	.	.	.	.
*	*	*	*	*	*	*	*	*	*ij	*	*	*ij	*	*	*ij	*	*	*ij	*	*	*	*	*	*	*	*	*	*
8B\L	.	8B/L	.	16f#/KL	.	16dd\KL	.	4B\	San-	.	4B\	San-	.	4f#\	San-	.	4dd\	San-	.	.	.	.	.	.	.	.	.	.
.	.	.	.	8f#/	.	8dd\	.	.	.	.	.	.	.	.	.	.	.	.	.	.	.	.	.	.	.	.	.	.
8B\	.	8B/	.	.	.	.	.	.	.	.	.	.	.	.	.	.	.	.	.	.	.	.	.	.	.	.	.	.
.	.	.	.	8f#/	.	8dd\	.	.	.	.	.	.	.	.	.	.	.	.	.	.	.	.	.	.	.	.	.	.
8B\	.	8B/	.	.	.	.	.	4B\	-ctus	.	4B\	-ctus	.	4f#\	-ctus	.	4dd\	-ctus	.	.	.	.	.	.	.	.	.	.
.	.	.	.	8f#/	.	8dd\	.	.	.	.	.	.	.	.	.	.	.	.	.	.	.	.	.	.	.	.	.	.
8B\J	.	8B/J	.	.	.	.	.	.	.	.	.	.	.	.	.	.	.	.	.	.	.	.	.	.	.	.	.	.
.	.	.	.	16f#/Jk	.	16dd\Jk	.	.	.	.	.	.	.	.	.	.	.	.	.	.	.	.	.	.	.	.	.	.
!	!	!	!	!LO:LB:g=original	!	!	!	!	!	!	!	!	!	!	!	!	!	!	!	!	!	!	!	!	!	!	!	!
=7	=7	=7	=7	=7	=7	=7	=7	=7	=7	=7	=7	=7	=7	=7	=7	=7	=7	=7	=7	=7	=7	=7	=7	=7	=7	=7	=7	=7
!	!	!	!	!	!	!	!	!LO:MO:mod=*null:null	!	!	!LO:MO:mod=*null:null	!	!	!LO:MO:mod=*null:null	!	!	!LO:MO:mod=*null:null	!	!	!	!	!LO:MO:mod=*null:null	!	!LO:MO:mod=*null:null	!	!LO:MO:mod=*null:null	!	!
*	*	*	*	*	*	*	*	*2\right	*	*	*2\right	*	*	*2\right	*	*	*2\right	*	*	*	*	*2\right	*	*2\right	*	*2\right	*	*
8G#X\L	.	8B/L	.	16e/KL	.	16dd\KL	.	2G#X\	San-	.	2B\	San-	.	2e\	San-	.	2dd\	San-	.	4r	.	2ee\	.	2b\	.	2dd\	.	1ryy
.	.	.	.	8e/	.	8dd\	.	.	.	.	.	.	.	.	.	.	.	.	.	.	.	.	.	.	.	.	.	.
8G#X\	.	8B/	.	.	.	.	.	.	.	.	.	.	.	.	.	.	.	.	.	.	.	.	.	.	.	.	.	.
.	.	.	.	8e/	.	8dd\	.	.	.	.	.	.	.	.	.	.	.	.	.	.	.	.	.	.	.	.	.	.
8G#X\	.	8B/	.	.	.	.	.	.	.	.	.	.	.	.	.	.	.	.	.	4ee\	.	.	.	.	.	.	.	.
.	.	.	.	8e/	.	8dd\	.	.	.	.	.	.	.	.	.	.	.	.	.	.	.	.	.	.	.	.	.	.
8G#X\J	.	8B/J	.	.	.	.	.	.	.	.	.	.	.	.	.	.	.	.	.	.	.	.	.	.	.	.	.	.
*Xtremolo	*	*Xtremolo	*	*	*	*	*	*	*	*	*	*	*	*	*	*	*	*	*	*	*	*	*	*	*	*	*	*
.	.	.	.	16e/Jk	.	16dd\Jk	.	.	.	.	.	.	.	.	.	.	.	.	.	.	.	.	.	.	.	.	.	.
8A\	.	8A/	.	8e/	.	8cc#\L	.	8A\	-ctus	.	8A\	-ctus	.	8e\	-ctus	.	8cc#\	-ctus	.	4a/	.	8ee\	.	8a\	.	8cc#\	.	.
*	*	*	*	*	*	*	*	*	*Xij	*	*	*Xij	*	*	*Xij	*	*	*Xij	*	*	*	*	*	*	*	*	*	*
!	!	!	!	!	!	!	!LO:DY:a:t=pp&colon;:mod=%s	!	!	!	!	!	!	!	!	!	!	!	!	!	!	!	!	!	!	!	!	!
8r	.	8r	.	8r	.	8ee\	pp	8r	.	.	8r	.	.	8r	.	.	8r	.	.	.	.	8r	.	8r	.	8r	.	.
4r	.	4r	.	4r	.	8ee\	.	4r	.	.	4r	.	.	4r	.	.	4r	.	.	4r	.	4r	.	4r	.	4r	.	.
.	.	.	.	.	.	8ee\J	.	.	.	.	.	.	.	.	.	.	.	.	.	.	.	.	.	.	.	.	.	.
=8	=8	=8	=8	=8	=8	=8	=8	=8	=8	=8	=8	=8	=8	=8	=8	=8	=8	=8	=8	=8	=8	=8	=8	=8	=8	=8	=8	=8
!	!	!	!	!	!	!	!	!	!	!	!LO:TX:a:t=2:mod=	!	!	!	!	!	!	!	!	!LO:TX:a:t=2.:mod=	!	!LO:TX:a:t=2:mod=	!	!LO:TX:a:t=2:mod=	!	!LO:TX:a:t=2:mod=	!	!
8r	.	8r	.	8r	.	(4ee\	.	0r	.	.	0r	.	.	0r	.	.	0r	.	.	0r	.	0r	.	0r	.	0r	.	1ryy
!	!	!	!LO:MO:mod=!LO&colon;DY&colon;ed=brack	!	!	!	!	!	!	!	!	!	!	!	!	!	!	!	!	!	!	!	!	!	!	!	!	!
!	!LO:DY:a:t=pia.:mod=%s	!	!LO:DY:t= :mod=%s	!	!LO:DY:mod=pp	!	!	!	!	!	!	!	!	!	!	!	!	!	!	!	!	!	!	!	!	!	!	!
8B\L	pp	8B/L	pp	8f#/L	p	.	.	.	.	.	.	.	.	.	.	.	.	.	.	.	.	.	.	.	.	.	.	.
8B\	.	8B/	.	8f#/	.	8dd#X\)	.	.	.	.	.	.	.	.	.	.	.	.	.	.	.	.	.	.	.	.	.	.
8B\J	.	8B/J	.	8f#/J	.	8r	.	.	.	.	.	.	.	.	.	.	.	.	.	.	.	.	.	.	.	.	.	.
8G#X\	.	8B/	.	8e/	.	8r	.	.	.	.	.	.	.	.	.	.	.	.	.	.	.	.	.	.	.	.	.	.
8r	.	8r	.	8r	.	8ddn\L	.	.	.	.	.	.	.	.	.	.	.	.	.	.	.	.	.	.	.	.	.	.
4r	.	4r	.	4r	.	8dd\	.	.	.	.	.	.	.	.	.	.	.	.	.	.	.	.	.	.	.	.	.	.
.	.	.	.	.	.	8dd\J	.	.	.	.	.	.	.	.	.	.	.	.	.	.	.	.	.	.	.	.	.	.
=9	=9	=9	=9	=9	=9	=9	=9	=9	=9	=9	=9	=9	=9	=9	=9	=9	=9	=9	=9	=9	=9	=9	=9	=9	=9	=9	=9	=9
.	.	.	.	.	.	16qqcc#/LL	.	.	.	.	.	.	.	.	.	.	.	.	.	.	.	.	.	.	.	.	.	.
.	.	.	.	.	.	16qqee/JJ	.	.	.	.	.	.	.	.	.	.	.	.	.	.	.	.	.	.	.	.	.	.
8r	.	8r	.	8r	.	(4dd\	.	.	.	.	.	.	.	.	.	.	.	.	.	.	.	.	.	.	.	.	.	1ryy
8A\L	.	8A/L	.	8e/L	.	.	.	.	.	.	.	.	.	.	.	.	.	.	.	.	.	.	.	.	.	.	.	.
8A\	.	8A/	.	8e/	.	8cc#\)	.	.	.	.	.	.	.	.	.	.	.	.	.	.	.	.	.	.	.	.	.	.
8A\J	.	8A/J	.	8e/J	.	8r	.	.	.	.	.	.	.	.	.	.	.	.	.	.	.	.	.	.	.	.	.	.
!	!	!	!	!	!	!LO:LB:g=original	!	!	!	!	!	!	!	!	!	!	!	!	!	!	!	!	!	!	!	!	!	!
8F#\	.	8A/	.	8a/	.	8r	.	.	.	.	.	.	.	.	.	.	.	.	.	.	.	.	.	.	.	.	.	.
8r	.	8r	.	8r	.	8cc#\L	.	.	.	.	.	.	.	.	.	.	.	.	.	.	.	.	.	.	.	.	.	.
4r	.	4r	.	4r	.	8cc#\	.	.	.	.	.	.	.	.	.	.	.	.	.	.	.	.	.	.	.	.	.	.
.	.	.	.	.	.	8cc#\J	.	.	.	.	.	.	.	.	.	.	.	.	.	.	.	.	.	.	.	.	.	.
=10	=10	=10	=10	=10	=10	=10	=10	=10	=10	=10	=10	=10	=10	=10	=10	=10	=10	=10	=10	=10	=10	=10	=10	=10	=10	=10	=10	=10
!	!	!	!	!	!	!	!	!	!	!	!	!	!	!LO:TX:a:i:t=Tut:mod=	!	!	!	!	!	!	!	!	!	!	!LO:DY:a:t=fo:mod= 	!	!	!
4r	.	4r	.	4r	.	8cc#\L	.	2r	.	.	2r	.	.	2r	.	.	2r	.	.	2r	.	2r	.	2r	f	2r	.	1ryy
.	.	.	.	.	.	16b\L	.	.	.	.	.	.	.	.	.	.	.	.	.	.	.	.	.	.	.	.	.	.
.	.	.	.	.	.	16cc#\JJ	.	.	.	.	.	.	.	.	.	.	.	.	.	.	.	.	.	.	.	.	.	.
4D\	.	4B/	.	4f#/	.	16dd\LL	.	.	.	.	.	.	.	.	.	.	.	.	.	.	.	.	.	.	.	.	.	.
.	.	.	.	.	.	16cc#\	.	.	.	.	.	.	.	.	.	.	.	.	.	.	.	.	.	.	.	.	.	.
.	.	.	.	.	.	16b\	.	.	.	.	.	.	.	.	.	.	.	.	.	.	.	.	.	.	.	.	.	.
.	.	.	.	.	.	16a\JJ	.	.	.	.	.	.	.	.	.	.	.	.	.	.	.	.	.	.	.	.	.	.
*tremolo	*	*tremolo	*	*	*	*	*	*	*	*	*	*	*	*	*	*	*	*	*	*tremolo	*	*tremolo	*	*	*	*	*	*
!!LO:TX:a:t= :mod=Tutti
!LO:TX:a:i:t=Tutti.:mod=	!LO:MO:mod=!LO&colon;DY&colon;ed=brack	!	!LO:MO:mod=!LO&colon;DY&colon;ed=brack	!	!	!	!	!	!	!	!	!	!LO:MO:mod=!LO&colon;DY&colon;ed=brack	!	!	!LO:MO:mod=!LO&colon;DY&colon;ed=brack	!	!	!LO:MO:mod=!LO&colon;DY&colon;ed=brack	!	!LO:MO:mod=!LO&colon;DY&colon;ed=brack	!	!	!	!	!	!	!
!LO:TX:a:t=....:mod=	!LO:DY:t= :mod=%s	!	!LO:DY:t= :mod=%s	!	!LO:DY:t=for:mod=%s	!LO:TX:t=P:problem=mixed beam:mod=	!LO:DY:t=for:mod=%s	!	!	!LO:DY:a:t=for:mod=%s	!	!	!LO:DY:t= :mod=%s	!	!	!LO:DY:t= :mod=%s	!LO:TX:a:i:t=Tutt:mod=	!	!LO:DY:t= :mod=%s	!	!LO:DY:t= :mod=%s	!	!LO:DY:a:t=for:mod=%s	!	!LO:DY:t= :mod=%s	!	!LO:DY:t=for&colon;:mod=%s	!
8E'\L	f	8B/L	f	16g#X/KL	f	16g#X/KL	f	4E\	Do-	f	4B\	Do-	f	4g#X\	Do-	f	4ee\	Do-	f	8ee\L	f	8ee\L	f	2b\	f	2ee\	f	.
.	.	.	.	8g#/	.	8ee\	.	.	.	.	.	.	.	.	.	.	.	.	.	.	.	.	.	.	.	.	.	.
8E'\	.	8B/	.	.	.	.	.	.	.	.	.	.	.	.	.	.	.	.	.	8ee\	.	8ee\	.	.	.	.	.	.
.	.	.	.	8g#/	.	8ee\	.	.	.	.	.	.	.	.	.	.	.	.	.	.	.	.	.	.	.	.	.	.
8E'\	.	8B/	.	.	.	.	.	8E\	-mi-	.	8B\	-mi-	.	8g#\	-mi-	.	8ee\	-mi-	.	8ee\	.	8ee\	.	.	.	.	.	.
.	.	.	.	8g#/	.	8ee\	.	.	.	.	.	.	.	.	.	.	.	.	.	.	.	.	.	.	.	.	.	.
8E'\J	.	8B/J	.	.	.	.	.	8E\	-nus	.	8B\	-nus	.	8g#\	-nus	.	8ee\	-nus	.	8ee\J	.	8ee\J	.	.	.	.	.	.
.	.	.	.	16g#/Jk	.	16ee\Jk	.	.	.	.	.	.	.	.	.	.	.	.	.	.	.	.	.	.	.	.	.	.
!	!	!LO:LB:g=original	!	!	!	!	!	!	!	!	!	!	!	!LO:LB:g=original	!	!	!	!	!	!	!	!	!	!	!	!	!	!
=11	=11	=11	=11	=11	=11	=11	=11	=11	=11	=11	=11	=11	=11	=11	=11	=11	=11	=11	=11	=11	=11	=11	=11	=11	=11	=11	=11	=11
*	*	*	*	*^	*	*^	*	*	*	*	*	*	*	*	*	*	*	*	*	*	*	*	*	*	*	*	*	*
*	*	*	*	*	*	*	*tremolo	*	*	*	*	*	*	*	*	*	*	*	*	*	*	*	*	*	*	*	*	*	*	*
8G#X\L	.	8B/L	.	16b/KL	2e/	.	16ee/KL	8dd\L	.	4G#X\	De-	.	4B\	De-	.	4e\	De-	.	4dd\	De-	.	8ee\L	.	8ee\L	.	2dd\	.	2ee\	.	1ryy
.	.	.	.	8b/	.	.	8ee/	.	.	.	.	.	.	.	.	.	.	.	.	.	.	.	.	.	.	.	.	.	.	.
8G#X\	.	8B/	.	.	.	.	.	8dd\	.	.	.	.	.	.	.	.	.	.	.	.	.	8ee\	.	8ee\	.	.	.	.	.	.
.	.	.	.	8b/	.	.	8ee/	.	.	.	.	.	.	.	.	.	.	.	.	.	.	.	.	.	.	.	.	.	.	.
8G#X\	.	8B/	.	.	.	.	.	8dd\	.	4G#\	-us	.	4B\	-us	.	4e\	-us	.	4dd\	-us	.	8ee\	.	8ee\	.	.	.	.	.	.
.	.	.	.	8b/	.	.	8ee/	.	.	.	.	.	.	.	.	.	.	.	.	.	.	.	.	.	.	.	.	.	.	.
8G#X\J	.	8B/J	.	.	.	.	.	8dd\J	.	.	.	.	.	.	.	.	.	.	.	.	.	8ee\J	.	8ee\J	.	.	.	.	.	.
.	.	.	.	16b/Jk	.	.	16ee/Jk	.	.	.	.	.	.	.	.	.	.	.	.	.	.	.	.	.	.	.	.	.	.	.
!!LO:MO:ori
*	*	*Xtremolo	*	*tremolo	*	*	*	*Xtremolo	*	*	*	*	*	*	*	*	*	*	*	*	*	*	*	*Xtremolo	*	*	*	*	*	*
!	!	!	!	!	!	!	!	!	!	!LO:LB:g=original	!	!	!	!	!	!	!	!	!	!	!	!	!	!	!	!	!	!	!	!
8A\L	.	8c#\L	.	16e/LL	2ryyyy	.	(16ee\LL	2ryyyy	.	4.A\	Sa-	.	4.A\	Sa-	.	4.e\	Sa-	.	4.cc#\	Sa-	.	8a/L	.	2ee\	.	4cc#\	.	4ee\	.	.
.	.	.	.	16a/	.	.	16ggn\)	.	.	.	.	.	.	.	.	.	.	.	.	.	.	.	.	.	.	.	.	.	.	.
8A\	.	8e\	.	16e/	.	.	16cc#|\	.	.	.	.	.	.	.	.	.	.	.	.	.	.	8a/	.	.	.	.	.	.	.	.
.	.	.	.	16a/	.	.	16cc#|\JJ	.	.	.	.	.	.	.	.	.	.	.	.	.	.	.	.	.	.	.	.	.	.	.
8A\	.	8c#\	.	16e/	.	.	(16ee\LL	.	.	.	.	.	.	.	.	.	.	.	.	.	.	8a/	.	.	.	4ee\	.	4ggn\	.	.
.	.	.	.	16a/	.	.	16gg\)	.	.	.	.	.	.	.	.	.	.	.	.	.	.	.	.	.	.	.	.	.	.	.
8A\J	.	8e\J	.	16e/	.	.	16cc#|\	.	.	8A\	-ba-	.	8A\	-ba-	.	8e\	-ba-	.	8cc#\	-ba-	.	8a/J	.	.	.	.	.	.	.	.
.	.	.	.	16a/JJ	.	.	16cc#|\JJ	.	.	.	.	.	.	.	.	.	.	.	.	.	.	.	.	.	.	.	.	.	.	.
*	*	*	*	*	*	*	*	*	*	*	*	*	*	*	*	*	*	*	*	*	*	*Xtremolo	*	*	*	*	*	*	*	*
!!LO:MO:mod
!! *	*	*Xtremolo	*	*tremolo	*	*	*	*Xtremolo	*	*	*	*	*	*	*	*	*	*	*	*	*	*	*	*	*	*	*	*	*	*
!! !	!	!	!	!	!	!	!	!	!	!LO:LB:g=original	!	!	!	!	!	!	!	!	!	!	!	!	!	!	!	!	!	!	!	!
!! 8A\L	.	8c#\L	.	16e/LL	2ryyyy	.	(16ee\LL	2ryyyy	.	4.A\	Sa-	.	4.A\	Sa-	.	4.e\	Sa-	.	4.cc#\	Sa-	.	8a/L	.	8eeL	.	4cc#\	.	4ee\	.	.
!! .	.	.	.	16a/	.	.	16ggn\)	.	.	.	.	.	.	.	.	.	.	.	.	.	.	.	.	.	.	.	.	.	.	.
!! 8A\	.	8e\	.	16e/	.	.	16cc#|\	.	.	.	.	.	.	.	.	.	.	.	.	.	.	8a/	.	8ee	.	.	.	.	.	.
!! .	.	.	.	16a/	.	.	16cc#|\JJ	.	.	.	.	.	.	.	.	.	.	.	.	.	.	.	.	.	.	.	.	.	.	.
!! 8A\	.	8c#\	.	16e/	.	.	(16ee\LL	.	.	.	.	.	.	.	.	.	.	.	.	.	.	8a/	.	8ee	.	4ee\	.	4gg\	.	.
!! .	.	.	.	16a/	.	.	16gg\)	.	.	.	.	.	.	.	.	.	.	.	.	.	.	.	.	.	.	.	.	.	.	.
!! 8A\J	.	8e\J	.	16e/	.	.	16cc#|\	.	.	8A\	-ba-	.	8A\	-ba-	.	8e\	-ba-	.	8cc#\	-ba-	.	8a/J	.	8eeJ	.	.	.	.	.	.
!! .	.	.	.	16a/JJ	.	.	16cc#|\JJ	.	.	.	.	.	.	.	.	.	.	.	.	.	.	.	.	.	.	.	.	.	.	.
!! *	*	*	*	*	*	*	*	*	*	*	*	*	*	*	*	*	*	*	*	*	*	*Xtremolo	*	*Xtremolo	*	*	*	*	*	*
!!LO:MO:end
*	*	*	*	*v	*v	*	*	*	*	*	*	*	*	*	*	*	*	*	*	*	*	*	*	*	*	*	*	*	*	*
*	*	*	*	*	*	*v	*v	*	*	*	*	*	*	*	*	*	*	*	*	*	*	*	*	*	*	*	*	*	*
!	!	!	!	!LO:LB:g=original	!	!LO:LB:g=original	!	!	!	!	!LO:LB:g=original	!	!	!	!	!	!LO:LB:g=original	!	!	!	!	!LO:LB:g=original	!	!LO:LB:g=original	!	!	!	!
=12	=12	=12	=12	=12	=12	=12	=12	=12	=12	=12	=12	=12	=12	=12	=12	=12	=12	=12	=12	=12	=12	=12	=12	=12	=12	=12	=12	=12
8A\L	.	8f#\L	.	16f#/LL	.	(16dd\LL	.	2A\	-oth	.	2A\	-oth	.	2f#\	-oth	.	2dd\	-oth	.	2ee\	.	2ff#\	.	2dd\	.	2ff#\	.	1ryy
.	.	.	.	16a/	.	16ff#\)	.	.	.	.	.	.	.	.	.	.	.	.	.	.	.	.	.	.	.	.	.	.
8A\	.	8f#\	.	16f#/	.	16dd|\	.	.	.	.	.	.	.	.	.	.	.	.	.	.	.	.	.	.	.	.	.	.
.	.	.	.	16a/	.	16dd|\JJ	.	.	.	.	.	.	.	.	.	.	.	.	.	.	.	.	.	.	.	.	.	.
8A\	.	8d\	.	16f#//	.	(16dd\LL	.	.	.	.	.	.	.	.	.	.	.	.	.	.	.	.	.	.	.	.	.	.
.	.	.	.	16a/	.	16ff#\)	.	.	.	.	.	.	.	.	.	.	.	.	.	.	.	.	.	.	.	.	.	.
8A\J	.	8f#\J	.	16f#/	.	(16ff#\	.	.	.	.	.	.	.	.	.	.	.	.	.	.	.	.	.	.	.	.	.	.
.	.	.	.	16a/JJ	.	16aa\JJ)	.	.	.	.	.	.	.	.	.	.	.	.	.	.	.	.	.	.	.	.	.	.
!	!	!	!	!	!	!	!	!	!	!	!	!	!	!LO:SIC:s=4g	!	!	!	!	!	!	!	!	!	!	!	!	!	!
8A\L	.	8c#\L	.	16e/LL	.	(16gg\LL	.	4A\	Do-	.	4e\	Do-	.	4gn\	Do-	.	4cc#\	Do-	.	2a/	.	2ee\	.	2ee\	.	2gg\	.	.
.	.	.	.	16a/	.	16ee\)	.	.	.	.	.	.	.	.	.	.	.	.	.	.	.	.	.	.	.	.	.	.
8A\	.	8e\	.	16e/	.	16cc#|\	.	.	.	.	.	.	.	.	.	.	.	.	.	.	.	.	.	.	.	.	.	.
.	.	.	.	16a/	.	16cc#|\JJ	.	.	.	.	.	.	.	.	.	.	.	.	.	.	.	.	.	.	.	.	.	.
8A\	.	8c#\	.	16e/	.	(16gg\LL	.	8A\	-mi-	.	8e\	-mi-	.	8g\	-mi-	.	8cc#\	-mi-	.	.	.	.	.	.	.	.	.	.
.	.	.	.	16a/	.	16ee\)	.	.	.	.	.	.	.	.	.	.	.	.	.	.	.	.	.	.	.	.	.	.
8A\J	.	8e\J	.	16e/	.	16cc#|\	.	8A\	-nus	.	8e\	-nus	.	8g\	-nus	.	8cc#\	-nus	.	.	.	.	.	.	.	.	.	.
.	.	.	.	16a/JJ	.	16cc#|\JJ	.	.	.	.	.	.	.	.	.	.	.	.	.	.	.	.	.	.	.	.	.	.
!	!	!	!	!	!	!	!	!	!	!	!	!	!	!	!	!	!	!	!	!	!	!	!	!	!	!LO:LB:g=original	!	!
=13	=13	=13	=13	=13	=13	=13	=13	=13	=13	=13	=13	=13	=13	=13	=13	=13	=13	=13	=13	=13	=13	=13	=13	=13	=13	=13	=13	=13
*	*	*tremolo	*	*	*	*	*	*	*	*	*	*	*	*	*	*	*	*	*	*	*	*	*	*	*	*	*	*
!	!	!	!	!	!	!	!	!	!	!	!	!	!	!	!	!	!	!	!	!	!	!LO:TX:t=e:mod=	!	!	!	!	!	!
8A\L	.	8d\L	.	16f#/LL	.	(16dd\LL	.	4A\	De-	.	4d\	De-	.	4f#\	De-	.	4dd\	De-	.	2dd\	.	2ff#\	.	2dd\	.	2ff#\	.	1ryy
.	.	.	.	16a/	.	16ff#\)	.	.	.	.	.	.	.	.	.	.	.	.	.	.	.	.	.	.	.	.	.	.
8A\	.	8d\	.	16f#/	.	16dd|\	.	.	.	.	.	.	.	.	.	.	.	.	.	.	.	.	.	.	.	.	.	.
.	.	.	.	16a/	.	16dd|\JJ	.	.	.	.	.	.	.	.	.	.	.	.	.	.	.	.	.	.	.	.	.	.
8A\	.	8d\	.	16f#/	.	(16dd\LL	.	4A\	-us	.	4A\	-us	.	4f#\	-us	.	4dd\	-us	.	.	.	.	.	.	.	.	.	.
.	.	.	.	16a/	.	16ff#\)	.	.	.	.	.	.	.	.	.	.	.	.	.	.	.	.	.	.	.	.	.	.
8A\J	.	8d\J	.	16f#/	.	16dd|\	.	.	.	.	.	.	.	.	.	.	.	.	.	.	.	.	.	.	.	.	.	.
.	.	.	.	16a/JJ	.	16dd|\JJ	.	.	.	.	.	.	.	.	.	.	.	.	.	.	.	.	.	.	.	.	.	.
*	*	*	*	*	*	*	*	*	*	*	*	*	*	*	*	*	*	*	*	*tremolo	*	*tremolo	*	*	*	*	*	*
8G#X\L	.	8e\L	.	16e/LL	.	(16dd\LL	.	4.G#X\	Sa-	.	4.B\	Sa-	.	4e\	Sa-	.	4.dd\	Sa-	.	8ee\L	.	8ee\L	.	2dd\	.	2ee\	.	.
.	.	.	.	16b/	.	16ee\)	.	.	.	.	.	.	.	.	.	.	.	.	.	.	.	.	.	.	.	.	.	.
8G#X\	.	8e\	.	16e/	.	16dd|\	.	.	.	.	.	.	.	.	.	.	.	.	.	8ee\	.	8ee\	.	.	.	.	.	.
.	.	.	.	16b/	.	16dd|\JJ	.	.	.	.	.	.	.	.	.	.	.	.	.	.	.	.	.	.	.	.	.	.
8G#X\	.	8e\	.	16e/	.	(16dd\LL	.	.	.	.	.	.	.	4e\	-ba-	.	.	.	.	8ee\	.	8ee\	.	.	.	.	.	.
.	.	.	.	16b/	.	16ee\)	.	.	.	.	.	.	.	.	.	.	.	.	.	.	.	.	.	.	.	.	.	.
8G#X\J	.	8e\J	.	16e/	.	16dd|\	.	8G#\	-ba-	.	8B\	-ba-	.	.	.	.	8dd\	-ba-	.	8ee\J	.	8ee\J	.	.	.	.	.	.
.	.	.	.	16b/JJ	.	16dd|\JJ	.	.	.	.	.	.	.	.	.	.	.	.	.	.	.	.	.	.	.	.	.	.
*Xtremolo	*	*Xtremolo	*	*Xtremolo	*	*	*	*	*	*	*	*	*	*	*	*	*	*	*	*Xtremolo	*	*Xtremolo	*	*	*	*	*	*
!LO:LB:g=original	!	!	!	!	!	!LO:LB:g=original	!	!	!	!	!	!	!	!	!	!	!	!	!	!	!	!	!	!	!	!	!	!
=14	=14	=14	=14	=14	=14	=14	=14	=14	=14	=14	=14	=14	=14	=14	=14	=14	=14	=14	=14	=14	=14	=14	=14	=14	=14	=14	=14	=14
!	!	!	!LO:MO:mod=!LO&colon;DY&colon;ed=brack	!	!	!	!	!	!	!	!	!	!	!	!	!	!	!	!	!	!LO:MO:mod=!LO&colon;DY&colon;ed=brack	!	!LO:MO:mod=!LO&colon;DY&colon;ed=brack	!	!LO:MO:mod=!LO&colon;DY&colon;ed=brack	!	!	!
!	!	!	!LO:DY:t= :mod=%s	!	!LO:DY	!	!	!	!	!	!	!	!	!	!	!	!	!	!	!	!LO:DY:t= :mod=%s	!	!LO:DY:t= :mod=%s	!	!LO:DY:t= :mod=%s	!	!LO:DY:t=p.:mod=%s	!
8A\	.	8A/L	p	8e/L	p	8cc#\	.	4A\	-oth.	.	8A\	-oth	.	8e\	-oth	.	8cc#\	-oth	.	8a/	p	8ee\	p	8cc#\L	p	8ee\L	p	1ryy
8r	.	8c#/J	.	8e/J	.	8r	.	.	.	.	8r	.	.	8r	.	.	8r	.	.	8r	.	8r	.	8cc#\J	.	8ee\J	.	.
!	!LO:DY:a:t=pp.:mod= 	!	!	!	!	!	!	!	!	!	!	!	!	!	!	!	!	!	!	!	!	!	!LO:DY:a:t=p&colon;:mod= 	!	!	!	!	!
4r	pp	16c#/LL	.	16e/LL	.	4r	.	4r	.	.	4r	.	.	4r	.	.	4r	.	.	4r	.	4r	p	16cc#\LL	.	16ee\LL	.	.
.	.	16A/	.	16c#/	.	.	.	.	.	.	.	.	.	.	.	.	.	.	.	.	.	.	.	16a\	.	16cc#\	.	.
.	.	16B/	.	16d/	.	.	.	.	.	.	.	.	.	.	.	.	.	.	.	.	.	.	.	16b\	.	16dd\	.	.
.	.	16c#/JJ	.	16e/JJ	.	.	.	.	.	.	.	.	.	.	.	.	.	.	.	.	.	.	.	16cc#\JJ	.	16ee\JJ	.	.
*	*	*tremolo	*	*	*	*	*	*	*	*	*	*	*	*	*	*	*	*	*	*	*	*	*	*	*	*	*	*
!	!LO:DY:t= :mod=p	!	!	!	!	!	!	!	!	!	!	!	!	!	!	!	!	!	!	!	!	!	!	!	!	!	!	!
!!LO:MO:ori
8E\	pp	8B/L	.	2d/	.	16r	.	2r	.	.	2r	.	.	2r	.	.	2r	.	.	8ee\	.	8ee\	.	4b\	.	4dd\	.	.
!	!	!	!	!	!	!	!LO:DY:t=pia:mod=%s	!	!	!	!	!	!	!	!	!	!	!	!	!	!	!	!	!	!	!	!	!
.	.	.	.	.	.	16dd\LL	p	.	.	.	.	.	.	.	.	.	.	.	.	.	.	.	.	.	.	.	.	.
8r	.	8B/	.	.	.	16b\	.	.	.	.	.	.	.	.	.	.	.	.	.	8r	.	8r	.	.	.	.	.	.
.	.	.	.	.	.	16g#X\JJ	.	.	.	.	.	.	.	.	.	.	.	.	.	.	.	.	.	.	.	.	.	.
!	!	!	!	!	!	!	!	!	!	!	!	!	!	!	!	!	!	!	!	!	!	!LO:MO:mod=!null:null	!	!	!	!	!	!
!	!	!	!	!	!	!	!	!	!	!	!	!	!	!	!	!	!	!	!	!	!	!LO:N:vis=4	!	!	!	!	!	!
8E\	.	8B/	.	.	.	16r	.	.	.	.	.	.	.	.	.	.	.	.	.	8ee\	.	8ee\	.	4dd\	.	4gg#X\	.	.
.	.	.	.	.	.	16dd\LL	.	.	.	.	.	.	.	.	.	.	.	.	.	.	.	.	.	.	.	.	.	.
8r	.	8B/J	.	.	.	16b\	.	.	.	.	.	.	.	.	.	.	.	.	.	8r	.	8r	.	.	.	.	.	.
.	.	.	.	.	.	16g#\JJ	.	.	.	.	.	.	.	.	.	.	.	.	.	.	.	.	.	.	.	.	.	.
!!LO:MO:mod
!! *	*	*tremolo	*	*tremolo	*	*	*	*	*	*	*	*	*	*	*	*	*	*	*	*	*	*	*	*	*	*	*	*
!! 8E\	pp	8B/L	.	8dL	.	16r	.	2r	.	.	2r	.	.	2r	.	.	2r	.	.	8ee\	.	8ee\	.	4b\	.	4dd\	.	.
!! !	!	!	!	!	!	!	!	!	!	!	!	!	!	!	!	!	!	!	!	!	!	!	!	!	!	!	!	!
!! .	.	.	.	.	.	16dd\LL	p	.	.	.	.	.	.	.	.	.	.	.	.	.	.	.	.	.	.	.	.	.
!! 8r	.	8B/	.	8d	.	16b\	.	.	.	.	.	.	.	.	.	.	.	.	.	8r	.	8r	.	.	.	.	.	.
!! .	.	.	.	.	.	16g#X\JJ	.	.	.	.	.	.	.	.	.	.	.	.	.	.	.	.	.	.	.	.	.	.
!! !	!	!	!	!	!	!	!	!	!	!	!	!	!	!	!	!	!	!	!	!	!	!	!	!	!	!	!	!
!! 8E\	.	8B/	.	8d	.	16r	.	.	.	.	.	.	.	.	.	.	.	.	.	8ee\	.	8ee\	.	4dd\	.	4gg#X\	.	.
!! .	.	.	.	.	.	16dd\LL	.	.	.	.	.	.	.	.	.	.	.	.	.	.	.	.	.	.	.	.	.	.
!! 8r	.	8B/J	.	8dJ	.	16b\	.	.	.	.	.	.	.	.	.	.	.	.	.	8r	.	8r	.	.	.	.	.	.
!! .	.	.	.	.	.	16g#\JJ	.	.	.	.	.	.	.	.	.	.	.	.	.	.	.	.	.	.	.	.	.	.
!! *	*	*Xtremolo	*	*	*	*	*	*	*	*	*	*	*	*	*	*	*	*	*	*	*	*	*	*	*	*	*	*
!!LO:MO:end
*	*	*Xtremolo	*	*	*	*	*	*	*	*	*	*	*	*	*	*	*	*	*	*	*	*	*	*	*	*	*	*
!	!	!	!	!	!	!	!	!	!	!	!	!	!	!LO:LB:g=original	!	!	!	!	!	!	!	!	!	!	!	!	!	!
=15	=15	=15	=15	=15	=15	=15	=15	=15	=15	=15	=15	=15	=15	=15	=15	=15	=15	=15	=15	=15	=15	=15	=15	=15	=15	=15	=15	=15
8AA/	.	2A/	.	2c#/	.	16r	.	1r	.	.	1r	.	.	1r	.	.	1r	.	.	8a/	.	8ee\	.	2cc#\	.	2aa\	.	1ryy
.	.	.	.	.	.	16a\LL	.	.	.	.	.	.	.	.	.	.	.	.	.	.	.	.	.	.	.	.	.	.
8r	.	.	.	.	.	16cc#\	.	.	.	.	.	.	.	.	.	.	.	.	.	8r	.	8r	.	.	.	.	.	.
.	.	.	.	.	.	16ee\JJ	.	.	.	.	.	.	.	.	.	.	.	.	.	.	.	.	.	.	.	.	.	.
8AA/	.	.	.	.	.	16r	.	.	.	.	.	.	.	.	.	.	.	.	.	8a/	.	8ee\	.	.	.	.	.	.
.	.	.	.	.	.	16a\LL	.	.	.	.	.	.	.	.	.	.	.	.	.	.	.	.	.	.	.	.	.	.
8r	.	.	.	.	.	16cc#\	.	.	.	.	.	.	.	.	.	.	.	.	.	8r	.	8r	.	.	.	.	.	.
.	.	.	.	.	.	16ee\JJ	.	.	.	.	.	.	.	.	.	.	.	.	.	.	.	.	.	.	.	.	.	.
8E\	.	2B/	.	2d/	.	16r	.	.	.	.	.	.	.	.	.	.	.	.	.	8ee\	.	8ee\	.	2dd\	.	2gg#X\	.	.
.	.	.	.	.	.	16dd\LL	.	.	.	.	.	.	.	.	.	.	.	.	.	.	.	.	.	.	.	.	.	.
8r	.	.	.	.	.	16b\	.	.	.	.	.	.	.	.	.	.	.	.	.	8r	.	8r	.	.	.	.	.	.
.	.	.	.	.	.	16g#X\JJ	.	.	.	.	.	.	.	.	.	.	.	.	.	.	.	.	.	.	.	.	.	.
8E\	.	.	.	.	.	16r	.	.	.	.	.	.	.	.	.	.	.	.	.	8ee\	.	8ee\	.	.	.	.	.	.
.	.	.	.	.	.	16dd\LL	.	.	.	.	.	.	.	.	.	.	.	.	.	.	.	.	.	.	.	.	.	.
8r	.	.	.	.	.	16b\	.	.	.	.	.	.	.	.	.	.	.	.	.	8r	.	8r	.	.	.	.	.	.
.	.	.	.	.	.	16g#\JJ	.	.	.	.	.	.	.	.	.	.	.	.	.	.	.	.	.	.	.	.	.	.
=16	=16	=16	=16	=16	=16	=16	=16	=16	=16	=16	=16	=16	=16	=16	=16	=16	=16	=16	=16	=16	=16	=16	=16	=16	=16	=16	=16	=16
!	!	!LO:MO:mod=*tremolo	!	!LO:MO:mod=*tremolo	!	!	!	!	!	!	!	!	!	!	!	!	!	!	!	!LO:MO:mod=*tremolo	!	!LO:MO:mod=*tremolo	!	!LO:MO:mod=*tremolo	!	!	!	!
*	*	*null	*	*null	*	*tremolo	*	*	*	*	*	*	*	*	*	*	*	*	*	*null	*	*null	*	*null	*	*	*	*
!LO:TX:t=P:problem=mixed beam:mod= 	!	!	!	!	!	!LO:TX:b:t=....:mod= 	!	!	!	!LO:DY:a:t=p&colon;:mod= 	!	!	!LO:DY:a:t=p&colon;:mod= 	!	!	!	!	!	!	!	!	!	!	!	!	!	!	!
8AA/L	.	8A/L	.	8c#/L	.	8a|/L	.	8r	.	p	8r	.	p	4r	.	.	8r	.	.	8a/L	.	8ee\L	.	8cc#\L	.	8aa\L	.	1ryy
!	!	!	!	!	!	!	!	!	!	!LO:DY:t= :mod=%s	!	!	!LO:DY:t= :mod=%s	!	!	!	!	!	!LO:DY:a:t=p&colon;:mod=%s	!	!	!	!	!	!	!	!	!
8A\	.	8A/	.	8c#/	.	8a|/	.	4A\	Sa-	p	4c#\	Sa-	p	.	.	.	4a\	Sa-	p	8a/	.	8ee\	.	8cc#\	.	8ee\	.	.
!	!	!	!	!	!	!	!	!	!	!	!	!	!	!	!	!LO:DY:a:t=p&colon;:mod=%s	!	!	!	!	!	!	!	!	!	!	!	!
8E\	.	8A/	.	8c#/	.	8a|/	.	.	.	.	.	.	.	8e\	Sa-	p	.	.	.	8a/	.	8ee\	.	8cc#\	.	8ee\	.	.
8C#\J	.	8A/J	.	8c#/J	.	8a|/J	.	8A\	-ba-	.	8c#\	-ba-	.	8e\	-ba-	.	8a\	-ba-	.	8a/J	.	8ee\J	.	8cc#\J	.	8ee\J	.	.
!	!	!LO:MO:mod=*Xtremolo	!	!LO:MO:mod=*Xtremolo	!	!	!	!	!	!	!	!	!	!	!	!	!	!	!	!LO:MO:mod=*Xtremolo	!	!LO:MO:mod=*Xtremolo	!	!LO:MO:mod=*Xtremolo	!	!	!	!
*	*	*null	*	*null	*	*Xtremolo	*	*	*	*	*	*	*	*	*	*	*	*	*	*null	*	*null	*	*null	*	*	*	*
2AA/	.	2A/	.	2c#/	.	2a/	.	2A\	-oth.	.	2c#\	-oth.	.	2e\	-oth.	.	2a\	-oth.	.	2a/	.	2ee\	.	2cc#\	.	2ee\	.	.
!	!	!	!	!LO:TX:b:i:t=Volti Subito:mod=	!	!LO:TX:b:i:t=Volti\nPleni\ncito:mod=	!	!	!	!	!	!	!	!LO:TX:b:i:t=Verte Pleni:mod=	!	!	!	!	!	!	!	!	!	!	!	!	!	!
==	==	==	==	==	==	==	==	==	==	==	==	==	==	==	==	==	==	==	==	==	==	==	==	==	==	==	==	==
*-	*-	*-	*-	*-	*-	*-	*-	*-	*-	*-	*-	*-	*-	*-	*-	*-	*-	*-	*-	*-	*-	*-	*-	*-	*-	*-	*-	*-
!!!system-decoration: [(g1)][(g2)][(g3)][(g4)]<s13>
!!!RDF**kern: | = vertical stroke
!!!filter-modern: shed -k -e "s/:TUP:/:tup:/L" | shed -X dynam -e "s/:a/:A/LX" | sic -sq | modori -m | autostem -r | tie -s | humtr -p | shed -e "s/yy//" | shed -e "s/^(X?)rep$/$1REP/I" | shed -e "s/^(X?)tuplet$/$1TUPLET/I"
!!!ENC: Mateusz Solarz
!!!END: 2020-09-25
!!!EED: Kamil Watkowski
!!!EEV: 2022-02-10
!!!ENC-modern: Andrzej Kubiczek
!!!END-modern: 2022-06-14
